X:454
T:Tune in D
S:Robin Galloway, Edinburgh
Z:Nigel Gatherer
M:4/4
L:1/8
K:D
DE | F2 FA FEDE  | FAAB A2  DE | F2 FA FEDE  | F2 E2 E2
DE | F2 FA FEDE  | FAAB A2  DE | F2 FA FA E2 | D6       :|
dA | B2 A2 A2 dA | B2 A2 A2 DE | F2 FA FEDE  | F2 E2 E2
dA | B2 A2 A2 dA | B2 A2 A2 DE | F2 FA FA E2 | D6        |
dA | B2 A2 A2 dA | B2 A2 A2 DE | F2 FA FEDE  | F2 E2 E2
DE | F2 FA FEDE  | FAAB A2  DE | F2 FA FA E2 | D6       |]
